X:1
T:Mrs. MacLeod of Raasay
M:4/4
L:1/8
R:Reel
K:A
cA |\
"A"A2a2 "D"fefa | "A"c2cB cdcB | "A"A2a2 "D"fefa | "E"B2BA  BdcB |
"A"A2a2 "D"fefa | "A"c2cB c2ce | "D"f2fe    fefg | "D"afec "E"B2 :|
|: cB |\
"A"A2cA eAcA | "A"c2cB cdcB | "A"A2cA eAcA | "E"B2BA  BdcB |
"A"A2cA eAcA | "A"c2cB c2ce | "D"f2fe fefg | "D"afec "E"B2 :|
